!!!!SEGMENT: pl-kk--kk-i-471--006_renner-josef--missa-tertia-agnus-dei.krn
!!!cenid: 18xx:1445
!!!COM: Renner, Josef
!!!COM-rismID: pe41020479
!!!CDT:
!!!CNT:
!!!OPR: Missa tertia
!!!OTL: Agnus Dei
!!!OMV: 006
!!!PDT:
!!!AGN: Sacred; Mass
!!!SMS-siglum: PL-Kk
!!!SMS-shelfmark: Kk.I.471
!!!SMS-shelfwork: 001-006 M
!!!SMS-variant: Partytura PL-Kk Kk.I.471:0009-0010
!!!SMS-altvar: Partytura PL-Kk Kk.I.471:0020, Tenor I PL-Kk Kk.I.471:0027, Tenor II PL-Kk Kk.I.471:0040, Bas I PL-Kk Kk.I.471:0053, Bas II PL-Kk Kk.I.471:0066, Tenor I PL-Kk Kk.I.471:0033, Tenor II PL-Kk Kk.I.471:0046, Bas I PL-Kk Kk.I.471:0059, Bas II PL-Kk Kk.I.471:0073
!!!NIFC-rismSourceID: 1001140695
!!!NIFC-islandoraID: pl-kk:13873
!!!URL-pdf-islandora: https://repozytorium.nifc.pl/islandora/object/pl-kk%3A13873/datastream/PDF/view
!!!URL-scan: https://polish.musicsources.pl/pl/lokalizacje/galeria/rekopisy/6078 @EN{Scan on Polish Music Sources Website} @PL{Skany w portalu Dziedzictwo Muzyki Polskiej w otwartym dostępie}
!!!ONB-nifc: UWAGA: na podstawie partytury. Proszę uzupełnić pola !!!SMS dot. partytury i głosów. Uwaga: części Mszy: 1. Kyrie, 2. Gloria, 3. Credo, 4. Sanctus, 5. Benedictus, 6. Agnus Dei
!!!AIN: 1 empty 1 organ 1 tenor
!!!key:
**kern	**kern	**dynam	**kern	**text	**dynam	**kern	**text	**dynam
*part3	*part3	*part3	*part2	*part2	*part2	*part1	*part1	*part1
*staff4	*staff3	*	*staff2	*staff2	*	*staff1	*staff1	*
*Iorgan	*Iempty	*	*Iempty	*	*	*Itenor	*	*
*I"Organo	*	*	*I"Bas I i II	*	*	*I"Tenor I i II	*	*
*	*	*	*I'B	*	*	*I'T	*	*
*clefF4	*clefG2	*	*clefF4	*	*	*clefGv2	*	*
*k[b-]	*k[b-]	*	*k[b-]	*	*	*k[b-]	*	*
*F:	*F:	*	*F:	*	*	*F:	*	*
*M2/2	*M2/2	*	*M2/2	*	*	*M2/2	*	*
*met(c|)	*met(c|)	*	*met(c|)	*	*	*met(c|)	*	*
*	*	*	*	*below	*	*	*	*
=1	=1	=1	=1	=1	=1	=1	=1	=1
*	*	*	*^	*	*	*	*	*
!	!	!	!	!	!	!	!LO:TX:t=P:problem=partia zapisana bez przenośnika oktawowego	!	!
!	!	!	!	!	!	!LO:DY:a	!LO:TX:rj:a:B:t=Andante	!	!
1r	1r	.	2c/	1r	A-	p	1r	.	.
.	.	.	2B-/	.	-gnus	.	.	.	.
=2	=2	=2	=2	=2	=2	=2	=2	=2	=2
*	*	*	*	*	*	*	*^	*	*
!	!	!	!	!	!	!	!	!	!	!LO:DY:a
1r	1r	.	2A/	1r	De-	.	1r	2c\	.	p
.	.	.	2G/	.	.	.	.	2B-\	.	.
=3	=3	=3	=3	=3	=3	=3	=3	=3	=3	=3
1r	1r	.	2F/	2F\	A-	.	2f/	2A\	A-	.
.	.	.	2r	2C\	-gnus	.	2e/	4G\	-gnus	.
.	.	.	.	.	.	.	.	4A\	.	.
=4	=4	=4	=4	=4	=4	=4	=4	=4	=4	=4
1r	1r	.	1F/	(1BB-\	De-	.	(1d/	1B-\	De-	.
=5	=5	=5	=5	=5	=5	=5	=5	=5	=5	=5
1r	1r	.	1F/	1FF\	.	.	1c/	1A\	.	.
=6	=6	=6	=6	=6	=6	=6	=6	=6	=6	=6
1r	1r	.	2F/	1C\)	.	.	1c/)	1G\	.	.
.	.	.	4E/	.	.	.	.	.	.	.
.	.	.	4D/	.	.	.	.	.	.	.
!!LO:PB:g=original
=7	=7	=7	=7	=7	=7	=7	=7	=7	=7	=7
2r	2r	.	2E/	2C\	-(i)	.	2c/	2G\	-i	.
2G\ 2C\	2cc/ 2e/	.	2E/	2C\	.	.	2c/	2G\	qui	.
=8	=8	=8	=8	=8	=8	=8	=8	=8	=8	=8
*	*^	*	*	*	*	*	*	*	*	*
1B-\ 1GG\	[2dd/	1g\	.	2G/	2GG\	.	.	2d/	2B-\	tol-	.
.	4dd/]	.	.	4G/	4GG\	.	.	4d/	4B-\	-lis	.
.	4ee/	.	.	4G/	4G\	.	.	4e/	4B-\	pec-	.
*	*v	*v	*	*	*	*	*	*	*	*	*
=9	=9	=9	=9	=9	=9	=9	=9	=9	=9	=9
*^	*	*	*	*	*	*	*	*	*	*
2c/	2FF\	1ff\ 1a\	.	2A/	2F\	.	.	2f/	2c\	-ca-	.
2d/	2D\	.	.	2A/	2D\	.	.	2f/	2d\	-ta	.
=10	=10	=10	=10	=10	=10	=10	=10	=10	=10	=10	=10
*	*	*^	*	*	*	*	*	*	*	*	*
1d/	1BB-\	4ff/	1g\	.	1B-/	1BB-\	.	.	1f/	1d\	mun-	.
.	.	4dd/	.	.	.	.	.	.	.	.	.	.
.	.	4gg/	.	.	.	.	.	.	.	.	.	.
.	.	4ff/	.	.	.	.	.	.	.	.	.	.
=11	=11	=11	=11	=11	=11	=11	=11	=11	=11	=11	=11	=11
2c/	2C\	2ee/	2g\	.	2G/	2C\	.	.	2e/	2c\	-di	.
2r	2ryy	2r	2ryy	.	2c/	2A\	.	.	2f/	2r	qui	.
*v	*v	*	*	*	*	*	*	*	*	*	*	*
*	*v	*v	*	*	*	*	*	*	*	*	*
=12	=12	=12	=12	=12	=12	=12	=12	=12	=12	=12
1r	1r	.	2c/	2A\	.	.	2f/	1r	tol-	.
.	.	.	4B-/	4G\	.	.	4e/	.	-lis	.
.	.	.	4A/	4F\	.	.	4d/	.	pec-	.
=13	=13	=13	=13	=13	=13	=13	=13	=13	=13	=13
1r	1r	.	2G/	2E\	.	.	2c/	2r	-ca-	.
.	.	.	2E/	2C\	.	.	2c/	2G\	pec-	.
=14	=14	=14	=14	=14	=14	=14	=14	=14	=14	=14
1r	1r	.	1D/	1GG\	.	.	(1c/	2G\	-ca-	.
.	.	.	.	.	.	.	.	2G\	-ta	.
!!LO:LB:g=original
=15	=15	=15	=15	=15	=15	=15	=15	=15	=15	=15
1r	1r	.	1D/	1GG\	.	.	1Bn/)	1G\	mun-	.
=16	=16	=16	=16	=16	=16	=16	=16	=16	=16	=16
1r	1r	.	1E/	1C\	-di	.	1c/	1G\	-di	.
*	*	*	*	*	*	*	*v	*v	*	*
=17	=17	=17	=17	=17	=17	=17	=17	=17	=17
*^	*	*	*	*	*	*	*	*	*
1c/	2.F\	1a/ 1f/	.	1rBB	2.F\	1.mi-	.	1r	.	.
.	4E\	.	.	.	4E\	-se-	.	.	.	.
=18	=18	=18	=18	=18	=18	=18	=18	=18	=18	=18
*	*	*^	*	*	*	*	*	*	*	*
2B-/	2D\	2b-/	1f\	.	1rBB	2D\	-re-	.	1r	.	.
2A/	2C\	2cc/	.	.	.	2C\	-re	.	.	.	.
*	*	*v	*v	*	*	*	*	*	*	*	*
=19	=19	=19	=19	=19	=19	=19	=19	=19	=19	=19
*	*	*	*	*	*	*	*	*^	*	*
2.B-/	[1BB-\	2.dd/	.	2.B-/	[1BB-\	no-	.	1rG	2.d\	1 mi-	.
4A/	.	4cc/	.	4A/	.	.	.	.	4c\	-se-	.
=20	=20	=20	=20	=20	=20	=20	=20	=20	=20	=20	=20
2G/	1BB-\]	2b-/	.	2G/	1BB-\]	.	.	1rG	2B-\	-re-	.
2F/	.	2a/	.	2F/	.	.	.	.	2A\	-re	.
=21	=21	=21	=21	=21	=21	=21	=21	=21	=21	=21	=21
*	*	*^	*	*	*	*	*	*	*	*	*
!	!	!	!	!LO:DY:a	!	!	!	!	!	!	!	!
1E/	1C\	2.ee/	1g\	pp	[1E/	[1C\	-bis	.	2.e/	1G\	no-	.
.	.	4dd/	.	.	.	.	.	.	4d/	.	-na	.
*	*	*v	*v	*	*	*	*	*	*	*	*	*
=22	=22	=22	=22	=22	=22	=22	=22	=22	=22	=22	=22
1G/	1C\	1cc/ 1e/	.	1E/]	1C\]	.	.	2c/	1G\	-bis	.
.	.	.	.	.	.	.	.	2c/	.	-bis,	.
!!LO:LB:g=original
=23	=23	=23	=23	=23	=23	=23	=23	=23	=23	=23	=23
*	*	*^	*	*	*	*	*	*	*	*	*
1c/	[1FF\	2.ff/	2a\	.	2A/	[1FF\	no-	.	2.f/	2c\	mi-	.
.	.	.	2g\	.	2G/	.	.	.	.	2B-\	-se-	.
.	.	4ee/	.	.	.	.	.	.	4e/	.	-na	.
=24	=24	=24	=24	=24	=24	=24	=24	=24	=24	=24	=24	=24
2B-/	1FF\]	2dd/	1f\	.	2F/	(1FF\]	.	.	2d/	2B-\	-re-	.
2A/	.	2cc/	.	.	2F/	.	.	.	2c/	2A\	-re	.
=25	=25	=25	=25	=25	=25	=25	=25	=25	=25	=25	=25	=25
!	!	!LO:TX:a:t=Flet	!	!	!	!	!	!	!	!	!	!
4G\	4GG\	4b-/	4d\	.	1D/	1GG\)	.	.	1B-/	1G\	no-	.
4r	4ryy	4dd/	4r	.	.	.	.	.	.	.	.	.
2r	2ryy	4cc/	2r	.	.	.	.	.	.	.	.	.
.	.	4b-/	.	.	.	.	.	.	.	.	.	.
=26	=26	=26	=26	=26	=26	=26	=26	=26	=26	=26	=26	=26
2E/	2AA\	4a/	2c#X\	.	1C#X/;	1AA\	-bis.	.	1A/;	1E\	-bis	.
.	.	4a#X/	.	.	.	.	.	.	.	.	.	.
2G#X/	2E\	4bn/	2d\	.	.	.	.	.	.	.	.	.
.	.	4b#X/	.	.	.	.	.	.	.	.	.	.
=27	=27	=27	=27	=27||	=27||	=27||	=27||	=27||	=27||	=27||	=27||	=27||
!	!	!	!	!	!	!	!	!	!LO:TX:a:i:t=Animosso	!	!	!LO:DY:a
2A/	2AA\	4cc#X/	4c#X\	.	2.A/	2.AA\	.	.	2.e\	2.c#X\	do-	f
.	.	4dd/	4r	.	.	.	.	.	.	.	.	.
2r	2ryy	4ee/	2r	.	.	.	.	.	.	.	.	.
.	.	4cc#/	.	.	4A/	4AA\	.	.	4e\	4c#\	-na	.
*v	*v	*	*	*	*	*	*	*	*	*	*	*
=28	=28	=28	=28	=28	=28	=28	=28	=28	=28	=28	=28
4f\	4dd/	4a\	.	1A/	1D\	.	.	1f/	1d\	no-	.
4r	4ff/	4r	.	.	.	.	.	.	.	.	.
2r	4ee/	2ryy	.	.	.	.	.	.	.	.	.
.	4dd/	.	.	.	.	.	.	.	.	.	.
*	*v	*v	*	*	*	*	*	*	*	*	*
=29	=29	=29	=29	=29	=29	=29	=29	=29	=29	=29
1ryy	8cc#X/L	.	2A/	2AA\	.	.	2e/	2c#X\	-bis	.
.	8aa/	.	.	.	.	.	.	.	.	.
.	8ee/	.	.	.	.	.	.	.	.	.
.	8cc#/J	.	.	.	.	.	.	.	.	.
.	8bn/L	.	2r	2ryy	.	.	2r	2ryy	.	.
.	8cc#/	.	.	.	.	.	.	.	.	.
.	8dd/	.	.	.	.	.	.	.	.	.
.	8ee/J	.	.	.	.	.	.	.	.	.
=30	=30	=30	=30	=30	=30	=30	=30	=30	=30	=30
1r	2a/	.	2.E/	2.AA\	.	.	2.c#X/	2.A\	do-	.
.	2r	.	.	.	.	.	.	.	.	.
.	.	.	4E/	4AA\	.	.	4c#/	4A\	-na	.
!!LO:PB:g=original
=31	=31	=31	=31	=31	=31	=31	=31	=31	=31	=31
1r	1r	.	1D/	1BB-\	.	.	1d/	(2G\	2 no-	.
.	.	.	.	.	.	.	.	4F\	.	.
.	.	.	.	.	.	.	.	4G\)	.	.
=32	=32	=32	=32	=32	=32	=32	=32	=32	=32	=32
*^	*^	*	*	*	*	*	*	*	*	*
4r	1A\	4r	2ryy	.	1E/	1AA\	.	.	1c#X/	1A\	-bis	.
4c#X/	.	4a/	.	.	.	.	.	.	.	.	.	.
4d/	.	4bn/	4g#X\	.	.	.	.	.	.	.	.	.
4e/	.	4cc#X/	4gn\	.	.	.	.	.	.	.	.	.
=33	=33	=33	=33	=33	=33	=33	=33	=33	=33	=33	=33	=33
!	!	!	!	!	!	!	!	!	!	!	!	!LO:DY:a
4d/	4D\	4dd/	4f\	.	2.F/	2D\	.	.	2.d/	2.A\	do-	f
4r	4ryy	8aa/L	4r	.	.	.	.	.	.	.	.	.
.	.	8gg/J	.	.	.	.	.	.	.	.	.	.
2r	2ryy	8ff/L	2r	.	.	4Cn\	.	.	.	.	.	.
.	.	8ee/	.	.	.	.	.	.	.	.	.	.
.	.	8ff/	.	.	4F/	4BB-\	.	.	4d/	4B-\	-na	.
.	.	8dd/J	.	.	.	.	.	.	.	.	.	.
*v	*v	*	*	*	*	*	*	*	*	*	*	*
*	*v	*v	*	*	*	*	*	*	*	*	*
=34	=34	=34	=34	=34	=34	=34	=34	=34	=34	=34
1ryy	4ccn/	.	2F/	2AA\	.	.	2cn/	2cn\	no-	.
.	4dd/	.	.	.	.	.	.	.	.	.
.	4ee/	.	2F/	2FF\	.	.	[2f/	2A\	-bis	.
.	4ff/	.	.	.	.	.	.	.	.	.
=35	=35	=35	=35	=35	=35	=35	=35	=35	=35	=35
1ryy	4g/	.	1G/	1C\	.	.	2f/]	1c\	pa-	.
.	4a/	.	.	.	.	.	.	.	.	.
.	4b-/	.	.	.	.	.	2e/	.	no-	.
.	4cc/	.	.	.	.	.	.	.	.	.
=36	=36	=36	=36	=36	=36	=36	=36	=36	=36	=36
1ryy	4a/	.	1A/	1FF\	.	.	1f/	1c\	cem	.
.	4cc/	.	.	.	.	.	.	.	.	.
.	4f/	.	.	.	.	.	.	.	.	.
.	4g/	.	.	.	.	.	.	.	.	.
!!LO:LB:g=original
=37	=37	=37	=37	=37	=37	=37	=37	=37	=37	=37
!	!	!	!	!	!	!	!LO:TX:a:i:t=ritennuto	!	!	!
1ryy	4a/	.	2A/	2F\	.	.	2.c/	2A\	1.mi-	.
.	4r	.	.	.	.	.	.	.	.	.
.	2r	.	2G/	2E\	.	.	.	2G\	.	.
.	.	.	.	.	.	.	4c/	.	-se-	.
=38	=38	=38	=38	=38	=38	=38	=38	=38	=38	=38
*	*^	*	*	*	*	*	*	*	*	*
2D\	4r	4ryy	.	2F/	2D\	.	.	2d/	2A\	-re-	.
.	4a/	2.a\	.	.	.	.	.	.	.	.	.
4d\	4ff/	.	.	2F/	2C\	.	.	2d/	2A\	-re	.
4c\	4ee/	.	.	.	.	.	.	.	.	.	.
=39	=39	=39	=39	=39	=39	=39	=39	=39	=39	=39	=39
*^	*	*	*	*	*	*	*	*	*	*	*
2B-/	1B-\	4dd/	1b-\	.	1F/	1BB-\	.	.	1d/	1B-\	no-	.
.	.	4ee/	.	.	.	.	.	.	.	.	.	.
2d/	.	4ff/	.	.	.	.	.	.	.	.	.	.
.	.	4gg/	.	.	.	.	.	.	.	.	.	.
=40	=40	=40	=40	=40	=40	=40	=40	=40	=40	=40	=40	=40
!	!	!LO:TX:a:t=D.C.	!	!	!LO:TX:a:t=D.C.	!	!	!	!	!	!	!
1c/	1F\	1aa/ 1a/	1r	.	1F/;	1FF\;	.	.	1c/;	1A\	-bis.	.
*v	*v	*	*	*	*v	*v	*	*	*v	*v	*	*
*	*v	*v	*	*	*	*	*	*	*
=:|!	=:|!	=:|!	=:|!	=:|!	=:|!	=:|!	=:|!	=:|!
*-	*-	*-	*-	*-	*-	*-	*-	*-
!!!system-decoration: [(s1,s2)]{(s3,s4)}
!!!EED: Leszek Kubiak
!!!EEV: 2021-04-26
!!!ENC: Tomasz Grochalski
!!!END: 2021-01-22
!!!YEC: Copyright 2022 Narodowy Instytut Fryderyka Chopina (https://polishscores.org)
!!!YEM: Licence CC BY 4.0 (https://creativecommons.org/licenses/by/4.0)
